src/public/icons/earn.svg

<svg viewBox="0 0 30 30" fill="none"
  xmlns="http://www.w3.org/2000/svg">
  <path d="M15.0112 5C15.19 5 15.3613 5.04469 15.5251 5.13406C15.689 5.22344 15.8156 5.34261 15.905 5.49157L18.8767 10.3402L24.3286 11.4574C24.5223 11.5021 24.7085 11.5989 24.8872 11.7479C25.0958 11.9415 25.2 12.1947 25.2 12.5076C25.2 12.8055 25.0958 13.0587 24.8872 13.2673L20.91 17.2668L21.6027 22.7858C21.6176 22.8304 21.625 22.8826 21.625 22.9422C21.625 23.2401 21.5133 23.4933 21.2899 23.7019C21.0813 23.9104 20.8355 24.0147 20.5525 24.0147C20.4036 24.0147 20.2695 23.9849 20.1503 23.9253L15.0336 21.6909L9.91681 23.9253C9.69337 24.0147 9.49972 24.037 9.33586 23.9923C9.03795 23.9625 8.79961 23.8285 8.62086 23.5901C8.457 23.3369 8.38997 23.0688 8.41976 22.7858L9.11243 17.2668L5.13521 13.2673C5.06073 13.1779 4.95646 12.9842 4.82239 12.6863C4.8075 12.6416 4.80005 12.5746 4.80005 12.4852C4.80005 12.232 4.88198 12.0085 5.04583 11.8149C5.22458 11.6064 5.44057 11.4797 5.69381 11.435L11.1904 10.3179L14.1175 5.49157C14.3409 5.16386 14.6388 5 15.0112 5Z" fill="#706b6d"/>
</svg>

<svg xmlns="http://www.w3.org/2000/svg" fill="none" viewBox="0 0 30 30"><path fill="#706b6d" d="M15.011 5q.268 0 .514.134.245.135.38.358l2.972 4.848 5.452 1.117q.29.068.558.29.313.291.313.76 0 .448-.313.76l-3.977 4 .693 5.519a.5.5 0 0 1 .022.156 1 1 0 0 1-.335.76 1.01 1.01 0 0 1-1.14.223l-5.116-2.234-5.117 2.234q-.335.135-.581.067a.98.98 0 0 1-.715-.402 1.2 1.2 0 0 1-.201-.804l.692-5.52-3.977-3.999q-.112-.135-.313-.58a.7.7 0 0 1-.022-.202q0-.38.246-.67.269-.313.648-.38l5.496-1.117 2.928-4.826Q14.452 5 15.01 5"/></svg>
